Surfn/32/actions/view-refresh.svg

<svg width="32" xmlns="http://www.w3.org/2000/svg" height="32" viewBox="0 0 32 32" xmlns:xlink="http://www.w3.org/1999/xlink">
<path style="fill:#859900;fill-rule:evenodd" d="M 32 16.003906 C 32 24.839844 24.835938 32 16 32 C 7.164062 32 0 24.839844 0 16.003906 C 0 7.164062 7.164062 0 16 0 C 24.835938 0 32 7.164062 32 16.003906 Z "/>
<g style="fill:#fff;fill-opacity:.902">
<path d="M 25.746094 12.011719 C 24.054688 8.351562 20.277344 6 16.023438 6 C 11.667969 6 7.6875 8.574219 6.121094 12.398438 L 9.421875 13.601562 C 10.464844 11.046875 13.117188 9.335938 16.023438 9.335938 C 18.824219 9.335938 21.300781 10.867188 22.449219 13.25 L 20.039062 14.15625 L 26.195312 17.503906 L 27.996094 11.164062 Z "/>
<path d="M 16.023438 22.667969 C 13.246094 22.667969 10.714844 21.089844 9.582031 18.722656 L 11.957031 17.855469 L 5.863281 14.582031 L 4 20.753906 L 6.269531 19.925781 C 7.929688 23.574219 11.792969 26.003906 16.023438 26.003906 C 20.390625 26.003906 24.261719 23.53125 25.878906 19.707031 L 22.59375 18.472656 C 21.515625 21.019531 18.9375 22.667969 16.023438 22.667969 Z "/>
</g>
</svg>

<?xml version="1.0" encoding="UTF-8" standalone="no"?>
<svg xmlns:rdf="http://www.w3.org/1999/02/22-rdf-syntax-ns#" xmlns="http://www.w3.org/2000/svg" version="1.1" xmlns:cc="http://creativecommons.org/ns#" xmlns:dc="http://purl.org/dc/elements/1.1/" viewBox="0 0 32 32">
 <path fill-rule="evenodd" fill="#4c4c4c" d="m32 16.004c0 8.836-7.164 15.996-16 15.996-8.8359 0-16-7.16-16-15.996 0-8.8399 7.1641-16.004 16-16.004 8.836 0 16 7.1641 16 16.004z"/>
 <g fill="#ffffff" fill-opacity=".902">
  <path d="m25.746 12.012c-1.691-3.6604-5.469-6.012-9.723-6.012-4.355 0-8.3355 2.5742-9.9019 6.398l3.3008 1.204c1.0431-2.555 3.6951-4.2661 6.6011-4.2661 2.801 0 5.278 1.5311 6.426 3.9141l-2.41 0.906 6.156 3.348 1.801-6.34z"/>
  <path d="m16.023 22.668c-2.777 0-5.308-1.578-6.441-3.945l2.375-0.868-6.0937-3.273-1.8633 6.172 2.2695-0.828c1.6602 3.648 5.5235 6.078 9.7535 6.078 4.368 0 8.239-2.473 9.856-6.297l-3.285-1.234c-1.078 2.547-3.656 4.195-6.571 4.195z"/>
 </g>
</svg>
